lib/brands/icons/bower.svg

<svg xmlns="http://www.w3.org/2000/svg" fill="none" aria-hidden="true" viewBox="0 0 48 48"><g id="bower-Icon"><g id="Group"><path id="Vector" fill="#543729" d="M41.3119 23.6341C39.4603 21.855 30.2014 20.7443 27.2798 20.421C27.4213 20.0868 27.5418 19.7411 27.6413 19.3852C28.0396 19.2107 28.4695 19.0485 28.914 18.913C28.9682 19.0727 29.2233 19.685 29.3687 19.9755C35.2435 20.1376 35.5451 15.6098 35.784 14.3694C36.0177 13.1565 36.0058 11.9846 38.0209 9.84215C35.0188 8.96731 30.7015 11.1981 29.2555 14.5184C28.712 14.3147 28.1674 14.1644 27.6288 14.0714C27.2427 12.5142 25.2326 8.17606 19.9577 8.17606C13.2791 8.17606 6 13.6858 6 23.0126C6 30.8528 11.3527 37.7236 14.377 37.7236C15.6978 37.7236 16.8339 36.7346 17.1006 35.848C17.3242 36.4559 18.0103 38.3457 18.2356 38.8267C18.5687 39.5381 20.1089 40.1537 20.783 39.4155C21.6496 39.8969 23.2398 40.1869 24.1066 38.9029C25.7757 39.256 27.2513 38.2607 27.2836 37.073C28.1026 37.0293 28.5044 35.8793 28.3255 34.9634C28.1937 34.2892 26.7853 31.8697 26.2359 31.0346C27.3234 31.9191 30.078 32.1695 30.4125 31.0351C32.1659 32.4114 34.8983 31.689 35.115 30.5698C37.2454 31.1233 39.689 29.9076 39.2877 28.4351C42.7103 28.1984 42.2723 24.5569 41.3119 23.6341Z"/><path id="Vector_2" fill="#00ACEE" d="M31.7821 15.8679C32.5193 14.4054 33.4456 12.8084 34.6156 11.8204C33.3278 12.3394 32.0564 13.8908 31.3047 15.549C30.9215 15.3055 30.5325 15.0883 30.1402 14.8983C31.1889 12.66 33.6255 10.7906 36.3108 10.6446C34.5122 12.2758 35.1507 15.6662 33.6718 17.4611C33.2487 17.036 32.277 16.2157 31.7821 15.8679ZM30.6195 18.2495C30.6202 18.1936 30.6412 17.7618 30.6805 17.5647C30.5774 17.5405 29.9363 17.4151 29.6021 17.4229C29.5778 17.8427 29.7785 18.5568 29.9769 18.9867C31.3432 18.958 32.3302 18.5489 32.911 18.1727C32.4165 17.9422 31.5726 17.7372 30.931 17.6146C30.8593 17.7628 30.6831 18.1402 30.6195 18.2495Z"/><path id="Vector_3" fill="#2BAF2B" d="M25.5426 29.8206L25.544 29.8272C25.3708 29.4545 25.1869 29.0018 24.9673 28.4101C25.8225 29.655 28.5029 29.013 28.3624 27.8974C29.6743 28.8846 32.3749 27.733 31.7609 26.3488C33.0751 26.9612 34.5751 25.729 34.2387 25.1921C36.4793 25.6243 38.6265 26.055 39.3005 26.2275C38.8528 26.9575 37.833 27.4731 36.2958 27.1148C37.1264 28.2464 35.5137 29.6039 33.2675 28.8562C33.7619 29.967 31.7619 30.9671 29.4888 29.8093C29.5177 30.9206 26.6689 31.0485 25.5426 29.8206ZM29.9873 24.2037C32.5878 24.4033 36.8882 24.7911 39.5505 25.1636C39.3823 24.2972 38.9229 24.0497 37.4776 23.6615C35.9232 23.8273 31.9796 24.2146 29.9873 24.2037Z"/><path id="Vector_4" fill="#FFCC2F" d="M28.3625 27.8974C29.6744 28.8846 32.375 27.733 31.761 26.3488C33.0753 26.9612 34.5752 25.729 34.2389 25.1921C31.5899 24.6814 28.8102 24.1688 28.1797 24.0792C28.5622 24.0995 29.1961 24.1429 29.9874 24.2037C31.9798 24.2147 35.9234 23.8273 37.4777 23.6615C34.9609 23.0234 29.8224 22.0921 26.2737 21.8627C26.1092 22.103 25.8069 22.5106 25.2804 22.9438C23.7278 26.2289 20.9146 28.4125 17.8021 28.4125C16.895 28.4125 15.8802 28.2594 14.7426 27.8958C14.0333 28.6558 11.0088 29.2317 8.55469 28.0271C10.5013 32.5852 15.0156 35.6278 20.0126 35.6278C24.221 35.6278 26.0871 31.3303 25.6787 30.1933C25.5796 29.9172 25.187 29.0018 24.9672 28.4102C25.8226 29.655 28.503 29.0129 28.3625 27.8974Z"/><path id="Vector_5" fill="#CECECE" d="M25.8118 19.2484C26.1834 19.0463 27.4675 18.268 28.6911 17.9755C28.6718 17.84 28.6572 17.7033 28.6482 17.5658C27.8454 17.7581 26.332 18.4067 25.4647 17.5128C27.2945 18.065 28.2081 17.0208 29.5529 17.0208C30.3543 17.0208 31.4978 17.2447 32.3992 17.5986C31.6742 16.9288 29.2967 14.9075 26.3531 14.9005C25.6958 15.6973 24.9855 17.4232 25.8118 19.2484Z"/><path id="Vector_6" fill="#EF5734" d="M14.7427 27.8958C15.8802 28.2594 16.8951 28.4125 17.8021 28.4125C20.9147 28.4125 23.7277 26.2288 25.2804 22.9438C24.132 23.9024 22.1362 24.7226 19.0194 24.7226C21.7957 24.0931 24.1856 22.7096 25.4013 20.6873C24.5467 19.3271 23.6198 16.3179 25.9671 13.939C25.606 12.779 23.8486 9.71677 19.9579 9.71677C13.1681 9.71677 7.54102 15.3983 7.54102 23.0126C7.54102 24.815 7.90488 26.5055 8.55479 28.027C11.0088 29.2317 14.0333 28.6558 14.7427 27.8958Z"/><path id="Vector_7" fill="#FFCC2F" d="M16.7798 16.3024C16.7798 18.0343 18.1838 19.4385 19.9158 19.4385C21.6478 19.4385 23.052 18.0343 23.052 16.3024C23.052 14.5703 21.6478 13.1662 19.9158 13.1662C18.1838 13.1662 16.7798 14.5703 16.7798 16.3024Z"/><path id="Vector_8" fill="#543729" d="M18.0381 16.3024C18.0381 17.3392 18.8788 18.1799 19.9157 18.1799C20.9527 18.1799 21.7933 17.3392 21.7933 16.3024C21.7933 15.2654 20.9528 14.4247 19.9157 14.4247C18.8788 14.4247 18.0381 15.2654 18.0381 16.3024Z"/><path id="Vector_9" fill="white" d="M19.9154 16.1495C20.5196 16.1495 21.0095 15.8449 21.0095 15.4692C21.0095 15.0935 20.5196 14.789 19.9154 14.789C19.3111 14.789 18.8213 15.0935 18.8213 15.4692C18.8213 15.8449 19.3111 16.1495 19.9154 16.1495Z"/></g></g></svg>

<svg xmlns="http://www.w3.org/2000/svg" fill="none" aria-hidden="true" viewBox="0 0 48 48"><path fill="#543729" d="M41.312 23.634c-1.852-1.779-11.11-2.89-14.032-3.213a8.58 8.58 0 0 0 .361-1.036c.399-.174.829-.337 1.273-.472.054.16.31.772.455 1.063 5.874.162 6.176-4.366 6.415-5.607.234-1.213.222-2.384 2.237-4.527-3.002-.875-7.32 1.356-8.765 4.676a9.014 9.014 0 0 0-1.627-.447c-.386-1.557-2.396-5.895-7.671-5.895C13.279 8.176 6 13.686 6 23.013c0 7.84 5.353 14.71 8.377 14.71 1.32 0 2.457-.988 2.724-1.875.223.608.91 2.498 1.135 2.979.333.711 1.873 1.327 2.547.589.867.48 2.457.77 3.324-.513 1.669.353 3.144-.642 3.177-1.83.819-.044 1.22-1.194 1.042-2.11-.132-.674-1.54-3.093-2.09-3.928 1.087.884 3.842 1.134 4.177 0 1.753 1.376 4.485.654 4.702-.465 2.13.553 4.574-.662 4.173-2.135 3.422-.237 2.984-3.878 2.024-4.8Z"/><path fill="#00ACEE" d="M31.782 15.868c.737-1.463 1.664-3.06 2.834-4.048-1.288.52-2.56 2.07-3.311 3.729-.383-.243-.773-.46-1.165-.65 1.049-2.239 3.486-4.108 6.17-4.254-1.798 1.63-1.16 5.021-2.638 6.816a19.344 19.344 0 0 0-1.89-1.593ZM30.62 18.25c.001-.056.022-.488.061-.685-.103-.024-.744-.15-1.078-.142-.024.42.177 1.134.375 1.564 1.366-.029 2.353-.438 2.934-.814-.495-.23-1.338-.436-1.98-.558-.072.148-.248.525-.312.635Z"/><path fill="#2BAF2B" d="m25.543 29.82.001.007a19.495 19.495 0 0 1-.577-1.417c.856 1.245 3.536.603 3.395-.513 1.312.988 4.013-.164 3.399-1.548 1.314.612 2.814-.62 2.478-1.157 2.24.432 4.388.863 5.062 1.035-.448.73-1.468 1.246-3.005.888.83 1.131-.782 2.489-3.029 1.741.495 1.111-1.505 2.111-3.778.953.029 1.112-2.82 1.24-3.946.012Zm4.444-5.616c2.6.2 6.901.587 9.564.96-.169-.867-.628-1.114-2.073-1.503-1.555.166-5.498.554-7.49.543Z"/><path fill="#FFCC2F" d="M28.363 27.897c1.311.988 4.012-.164 3.398-1.548 1.314.612 2.814-.62 2.478-1.157-2.65-.51-5.429-1.023-6.06-1.113.383.02 1.017.064 1.808.125 1.993.01 5.936-.377 7.49-.543-2.516-.638-7.655-1.569-11.203-1.798a5.09 5.09 0 0 1-.994 1.08c-1.552 3.286-4.365 5.47-7.478 5.47-.907 0-1.922-.154-3.06-.517-.709.76-3.733 1.336-6.187.131 1.946 4.558 6.46 7.6 11.458 7.6 4.208 0 6.074-4.297 5.666-5.434-.1-.276-.492-1.191-.712-1.783.856 1.245 3.536.603 3.396-.513Z"/><path fill="#CECECE" d="M25.812 19.248c.371-.202 1.655-.98 2.88-1.273a5.414 5.414 0 0 1-.044-.41c-.803.193-2.316.842-3.183-.052 1.83.552 2.743-.492 4.088-.492.801 0 1.945.224 2.846.578-.725-.67-3.102-2.691-6.046-2.699-.657.797-1.368 2.523-.541 4.348Z"/><path fill="#EF5734" d="M14.743 27.896c1.137.363 2.152.517 3.06.517 3.112 0 5.925-2.184 7.477-5.47-1.148.96-3.144 1.78-6.26 1.78 2.776-.63 5.166-2.013 6.381-4.036-.854-1.36-1.781-4.37.566-6.748-.361-1.16-2.118-4.222-6.01-4.222-6.789 0-12.416 5.681-12.416 13.296 0 1.802.364 3.492 1.014 5.014 2.454 1.205 5.478.629 6.188-.131Z"/><path fill="#FFCC2F" d="M16.78 16.302a3.136 3.136 0 1 0 6.272 0 3.136 3.136 0 0 0-6.272 0Z"/><path fill="#543729" d="M18.038 16.302a1.878 1.878 0 1 0 3.755 0 1.878 1.878 0 0 0-3.755 0Z"/><path fill="#fff" d="M19.915 16.15c.605 0 1.095-.305 1.095-.68 0-.377-.49-.681-1.095-.681-.604 0-1.094.305-1.094.68 0 .376.49.68 1.094.68Z"/></svg>
